X: 4014
T: DUNDEE
R: Reel.
%R: reel
B: James Kerr "Merry Melodies" v.4 p.04 #14
Z: 2016 John Chambers <jc:trillian.mit.edu>
M: C|
L: 1/8
K: A
|:\
vE2(EC) A,B,CD | E2(EC) DB,B,F |\
E2(EC) A,B,CE | FAGB cAAc ::\
(c/B/A) (EA) FAEe | (c/B/A) (Ac) dBBe |\
(c/B/A) (EA) FAdf | (e/d/c) (d/c/B) cAAc :|

%%sep 1 1 500
%%sep 1 1 500

